X:519
L:1/8
M:2/4
K:G
 G>A BBcc | A2 dedc | c/B/A/G/ G/F/G/A/ | BAG>A | BBcc | A2 d/e/d/c/ | c/B/A/G/ B/A/G/F/ | G2 :: 
 G/A/B/c/ | .d.B.c.d | BG G/A/B/c/ | .d.B.c.d | [G,B,Bg]2 G/A/B/c/ | dBcd | BG G/A/B/c/ | dBcd | 
 [G,B,Bg]2 :|

